dist/img/blog/20.svg

<svg width="25" height="25" viewBox="0 0 25 25" fill="none" xmlns="http://www.w3.org/2000/svg">
<path d="M16.2009 6.16866C10.9073 6.16866 9.59602 2.62331 9.47461 7.89282C10.4216 7.72276 11.1988 7.48003 11.83 7.26151C12.4613 7.04301 12.9713 6.87295 13.457 6.87295C15.3752 6.87295 15.3752 9.22837 15.3752 11.7538C15.3752 12.1665 15.351 12.5793 15.3266 12.9921C15.5937 12.9435 15.9094 12.8951 16.225 12.8951C18.7019 12.8951 19.7217 14.7649 19.7704 14.8619C19.8918 15.0804 19.7946 15.3475 19.6003 15.4448C19.5275 15.469 19.4546 15.4934 19.406 15.4934C19.2603 15.4934 19.0903 15.4205 19.0175 15.2505C18.9932 15.2019 18.1675 13.745 16.2492 13.745C15.8607 13.745 15.5207 13.7936 15.2294 13.8907C14.938 15.7605 14.2823 17.363 13.5782 18.6743C14.6953 19.7914 15.7394 20.4227 16.2494 20.4227C17.6336 20.4227 23 15.809 23 8.98557C22.9758 2.16214 21.8345 6.16874 16.2008 6.16874L16.2009 6.16866ZM19.1634 10.9523C18.6292 10.9523 18.1922 10.5153 18.1922 9.98112C18.1922 9.44691 18.6292 9.0099 19.1634 9.0099C19.6976 9.0099 20.1346 9.44691 20.1346 9.98112C20.1346 10.5152 19.6974 10.9523 19.1634 10.9523Z" fill="#202125"/>
<path d="M14.404 13.2834C14.4526 12.7734 14.5011 12.2635 14.5011 11.7293C14.5011 8.57251 14.2582 7.72275 13.457 7.72275C12.7043 7.72275 11.4657 8.45127 9.47464 8.74262C8.94042 8.81546 8.38197 8.86407 7.75049 8.86407C4.71516 8.86407 2.99109 7.69855 2.04407 7.69855C1.24274 7.69855 1 8.54853 1 11.7051C1 18.5285 6.36646 23.1422 7.75057 23.1422C8.64899 23.1422 11.2229 21.1996 12.9228 17.97C13.4812 16.9015 13.9426 15.7118 14.2098 14.3762C14.2826 14.0361 14.3554 13.6719 14.404 13.2834L14.404 13.2834ZM3.81677 12.7249C3.81677 12.1907 4.25377 11.7537 4.78799 11.7537C5.32221 11.7537 5.75921 12.1907 5.75921 12.7249C5.75921 13.2592 5.32221 13.6962 4.78799 13.6962C4.25395 13.6962 3.81677 13.2592 3.81677 12.7249ZM11.2715 17.6543C11.2229 17.7271 10.2031 19.6212 7.72619 19.6212C5.24932 19.6212 4.22945 17.7514 4.18084 17.6543C4.05939 17.4358 4.15662 17.1687 4.3509 17.0715C4.56941 16.95 4.83651 17.0473 4.93373 17.2415C4.95795 17.2902 5.78371 18.747 7.70195 18.747C9.6446 18.747 10.4702 17.2658 10.4702 17.2415C10.5916 17.023 10.8587 16.9502 11.053 17.0715C11.3199 17.1687 11.3928 17.4358 11.2715 17.6543H11.2715ZM9.74169 12.7249C9.74169 12.5307 9.79031 12.385 9.88736 12.2393C10.0574 11.948 10.373 11.7779 10.7129 11.7779C11.2471 11.7779 11.6841 12.2149 11.6841 12.7491C11.6841 13.2833 11.2471 13.7203 10.7129 13.7203C10.5673 13.7203 10.4458 13.6961 10.3244 13.6233C9.9602 13.4534 9.74167 13.1134 9.74167 12.7249L9.74169 12.7249Z" fill="#202125"/>
</svg>

<svg width="25" height="25" viewBox="0 0 25 25" fill="none" xmlns="http://www.w3.org/2000/svg"><path d="M16.2 6.169c-5.293 0-6.604-3.546-6.725 1.724a15.36 15.36 0 002.355-.631c.631-.219 1.141-.389 1.627-.389 1.918 0 1.918 2.355 1.918 4.88 0 .413-.024.826-.048 1.24.267-.05.582-.098.898-.098 2.477 0 3.497 1.87 3.545 1.967a.428.428 0 01-.17.583c-.073.024-.145.048-.194.048a.416.416 0 01-.389-.242c-.024-.05-.85-1.506-2.768-1.506-.388 0-.728.049-1.02.146-.291 1.87-.947 3.472-1.65 4.783 1.116 1.117 2.16 1.749 2.67 1.749 1.385 0 6.751-4.614 6.751-11.437-.024-6.824-1.166-2.817-6.8-2.817zm2.963 4.783a.974.974 0 01-.97-.97c0-.535.436-.972.97-.972.535 0 .972.437.972.971a.974.974 0 01-.972.971z" fill="#202125"/><path d="M14.404 13.283c.049-.51.097-1.02.097-1.554 0-3.156-.243-4.006-1.044-4.006-.753 0-1.991.728-3.982 1.02-.535.072-1.093.121-1.725.121-3.035 0-4.759-1.165-5.706-1.165-.801 0-1.044.85-1.044 4.006 0 6.824 5.366 11.437 6.75 11.437.899 0 3.473-1.942 5.173-5.172a13.393 13.393 0 001.287-3.594c.073-.34.145-.704.194-1.093zm-10.587-.558c0-.534.437-.971.971-.971s.971.437.971.97a.974.974 0 01-.971.972.974.974 0 01-.971-.971zm7.454 4.93c-.048.072-1.068 1.966-3.545 1.966s-3.497-1.87-3.545-1.967a.427.427 0 01.17-.582.427.427 0 01.583.17c.024.048.85 1.505 2.768 1.505 1.943 0 2.768-1.481 2.768-1.506.122-.218.389-.29.583-.17.267.098.34.365.218.583zm-1.53-4.93c0-.194.05-.34.146-.486a.947.947 0 01.826-.461c.534 0 .971.437.971.971a.974.974 0 01-.971.971.713.713 0 01-.389-.097.98.98 0 01-.582-.898z" fill="#202125"/></svg>
